X:1
T:Title
L:1/8
Q:1/4=100
M:4/4
K:E
V:1 treble nm="Church Organ, Staff"
V:1
 B2 B2 B2 e2 | AG F2 c2 B2 | G2 E2 EE F2 | GA G6 | B2 B2 BBee- | ed c2 dc f2 | B^AGe dc B2 | %7
w: By~G.~B.~Lissant * * *|||||||
 BB B2 c2 d2- | dd d2 G2 G2 | AG e2- e/ z/ d c2 | G2 B2 AG F2- | FE E6 |] %12
w: |||||

